dist/icons/svgs/phone-circle-outline.svg

<svg xmlns="http://www.w3.org/2000/svg" width="24" height="24" fill="currentcolor" class="icon-phone-circle-outline" viewBox="0 0 24 24">
  <path d="M12 3.875C9.07031 3.875 6.41406 5.4375 4.92969 7.9375C3.48438 10.4766 3.48438 13.5625 4.92969 16.0625C6.41406 18.6016 9.07031 20.125 12 20.125C14.8906 20.125 17.5469 18.6016 19.0312 16.0625C20.4766 13.5625 20.4766 10.4766 19.0312 7.9375C17.5469 5.4375 14.8906 3.875 12 3.875ZM12 22C8.40625 22 5.125 20.125 3.32812 17C1.53125 13.9141 1.53125 10.125 3.32812 7C5.125 3.91406 8.40625 2 12 2C15.5547 2 18.8359 3.91406 20.6328 7C22.4297 10.125 22.4297 13.9141 20.6328 17C18.8359 20.125 15.5547 22 12 22ZM9.26562 7.03906C9.65625 6.96094 10.0469 7.11719 10.2031 7.50781L10.9844 9.38281C11.1016 9.69531 11.0234 10.0469 10.75 10.2812L9.8125 11.0625C10.4375 12.4297 11.5703 13.5625 12.9375 14.1875L13.7188 13.25C13.9531 12.9766 14.3047 12.8984 14.6172 13.0156L16.4922 13.7969C16.8828 13.9531 17.0391 14.3438 16.9609 14.7344L16.4922 16.4531C16.375 16.7656 16.1016 17 15.75 17C10.9062 17 7 13.0938 7 8.25C7 7.89844 7.23438 7.625 7.54688 7.50781L9.26562 7.03906Z"/>
</svg>

<svg xmlns="http://www.w3.org/2000/svg" width="24" height="24" fill="currentColor" class="icon-phone-circle-outline" viewBox="0 0 24 24">
  <path d="M12 3.875c-2.93 0-5.586 1.563-7.07 4.063-1.446 2.539-1.446 5.625 0 8.125A8.13 8.13 0 0 0 12 20.125c2.89 0 5.547-1.523 7.031-4.062 1.446-2.5 1.446-5.586 0-8.125-1.484-2.5-4.14-4.063-7.031-4.063M12 22c-3.594 0-6.875-1.875-8.672-5-1.797-3.086-1.797-6.875 0-10C5.125 3.914 8.406 2 12 2c3.555 0 6.836 1.914 8.633 5 1.797 3.125 1.797 6.914 0 10A9.93 9.93 0 0 1 12 22M9.266 7.04c.39-.08.78.077.937.468l.781 1.875a.8.8 0 0 1-.234.898l-.937.781a6.4 6.4 0 0 0 3.124 3.126l.782-.938a.8.8 0 0 1 .898-.234l1.875.78c.39.157.547.548.469.938l-.469 1.72c-.117.312-.39.546-.742.546A8.736 8.736 0 0 1 7 8.25c0-.352.234-.625.547-.742z"/>
</svg>
